X: 223
T: Marquis of Huntly's Snuff Mill
R: strathspey
M: C
L: 1/16
Z: 2012 John Chambers <jc:trillian.mit.edu>
B: J. Anderson "Budget of Strathspeys, Reels and Country Dances" (Early 1800s) p.22 #3
F: http://imslp.org/wiki/Anderson%27s_Budget_of_Strathspeys,_Reels_and_Country_Dances_(Various)
K: G
|:\
(DG3) (G3B) (A3G) E4 | (DG3)(G3B) (d2ef) g4 | e3d g3B (cB)(AG) E4 | D3GB3G A4 G4 :|
(d3g)(g3b) (a2g2)e4 | (d3g)(g3b) a3bg3d | e3g (ed)(cB) (cB)(AG) E4 | D3GB3G A4 G4 ||
(d2g2)(g2b2) (a2g2)e4 | (e3g)g3b a3bg3d | .e2.g2.B2.d2 (cB)(AG) E2(ga) | b3Gd3B A4 G4 |]

%%sep 2 1 500
%%sep 1 1 500

